X:124
T:The New Rigged Ship
Z:Jack Campin, http://www.campin.me.uk/
F:Jack Campin's Nine-Note Tunebook
% last edit 03-02-2013
M:6/8
L:1/8
Q:3/8=104
K:F
C/D/|FEF F2A|FEF F2A|GEC CEF|GEC CDE|
     FEF F2A|FEF F2A|GEC CDE|F3  F2:|
A/B/|c2A c2A|F2F FAc|d2B d2B|G2G GAB|
     c2A c2A|F2F GEC|DEF GFE|F3  F2:|

